site/components/case-study/SVG/ft-figure.svg

<?xml version="1.0" encoding="UTF-8" standalone="no"?>
<svg width="173px" height="150px" viewBox="0 0 173 150" version="1.1" xmlns="http://www.w3.org/2000/svg" xmlns:xlink="http://www.w3.org/1999/xlink">
    <!-- Generator: Sketch 40.3 (33839) - http://www.bohemiancoding.com/sketch -->
    <title>7weeks</title>
    <desc>Created with Sketch.</desc>
    <defs></defs>
    <g id="Symbols" stroke="none" stroke-width="1" fill="none" fill-rule="evenodd">
        <g id="7weeks" fill="#F8F8F8">
            <g id="Group-2">
                <path d="M172.765625,100.546875 C172.218748,98.7499875 171.046887,97.8515625 169.25,97.8515625 L165.5,97.8515625 L165.5,101.601562 L165.5,103.710938 C165.5,105.273442 164.95313,106.601557 163.859375,107.695312 C162.76562,108.789067 161.437505,109.335938 159.875,109.335938 C158.312495,109.335938 156.98438,108.789067 155.890625,107.695312 C154.79687,106.601557 154.25,105.273442 154.25,103.710938 L154.25,101.601562 L154.25,97.8515625 L131.75,97.8515625 L131.75,101.601562 L131.75,103.710938 C131.75,105.273442 131.20313,106.601557 130.109375,107.695312 C129.01562,108.789067 127.687505,109.335938 126.125,109.335938 C124.562495,109.335938 123.23438,108.789067 122.140625,107.695312 C121.04687,106.601557 120.5,105.273442 120.5,103.710938 L120.5,101.601562 L120.5,97.8515625 L116.75,97.8515625 C114.953116,97.8515625 113.781252,98.7499875 113.234375,100.546875 L113,100.546875 L113,101.601562 L113,113.320312 L113,146.25 C113,147.26563 113.37109,148.144528 114.113281,148.886719 C114.855472,149.62891 115.73437,150 116.75,150 L169.25,150 C170.265627,150 171.14453,149.62891 171.886715,148.886719 C172.628907,148.144528 173,147.26563 173,146.25 L173,113.320312 L173,101.601562 L173,100.546875 L172.765625,100.546875 Z M169.25,146.25 L116.75,146.25 L116.75,116.25 L169.25,116.25 L169.25,146.25 Z M126.06641,105.585938 C126.57422,105.585938 127.023432,105.41016 127.414062,105.05859 C127.804693,104.707027 128,104.257815 128,103.710938 L128,91.875 C128,91.3281225 127.804693,90.87891 127.414062,90.52734 C127.023432,90.1757775 126.57422,90 126.06641,90 C125.558593,90 125.12891,90.1757775 124.77734,90.52734 C124.425778,90.87891 124.25,91.3281225 124.25,91.875 L124.25,103.710938 C124.25,104.257815 124.425778,104.707027 124.77734,105.05859 C125.12891,105.41016 125.558593,105.585938 126.06641,105.585938 L126.06641,105.585938 Z M159.875,105.585938 C160.421877,105.585938 160.87109,105.41016 161.22266,105.05859 C161.574223,104.707027 161.75,104.257815 161.75,103.710938 L161.75,91.875 C161.75,91.3281225 161.574223,90.87891 161.22266,90.52734 C160.87109,90.1757775 160.421877,90 159.875,90 C159.328123,90 158.87891,90.1757775 158.52734,90.52734 C158.175778,90.87891 158,91.3281225 158,91.875 L158,103.710938 C158,104.257815 158.175778,104.707027 158.52734,105.05859 C158.87891,105.41016 159.328123,105.585938 159.875,105.585938 L159.875,105.585938 Z" id="Calendar"></path>
                <path d="M69.5945946,127.477477 C77.7027027,76.8018018 93.2432432,55.8558559 105.855856,41.8918919 C112.387387,34.6846847 119.144144,27.2522523 119.144144,16.8918919 C119.144144,7.65765766 112.162162,0 101.351351,0 C90.3153153,0 84.2342342,6.08108108 84.2342342,15.7657658 C84.2342342,18.6936937 85.5855856,22.2972973 86.7117117,23.6486486 C86.2612613,23.8738739 85.5855856,24.0990991 84.6846847,24.0990991 C72.0720721,24.0990991 65.990991,0 47.2972973,0 C37.6126126,0 30.1801802,6.53153153 25.9009009,21.1711712 L24.0990991,21.1711712 L21.6216216,1.57657658 L-7.38964445e-13,1.57657658 L-7.38964445e-13,61.036036 L20.2702703,61.036036 C23.8738739,42.7927928 28.1531532,38.0630631 35.5855856,38.0630631 C45.045045,38.0630631 56.0810811,45.7207207 68.2432432,45.7207207 C75.4504505,45.7207207 83.1081081,43.6936937 91.6666667,37.3873874 L93.018018,38.7387387 L83.1081081,49.0990991 C38.7387387,95.2702703 25.2252252,109.459459 25.2252252,130.630631 C25.2252252,141.666667 33.5585586,150 48.1981982,150 C61.9369369,150 67.5675676,139.864865 69.5945946,127.477477 L69.5945946,127.477477 Z" id="7"></path>
            </g>
        </g>
    </g>
</svg>

<svg width="173" height="150" viewBox="0 0 173 150" xmlns="http://www.w3.org/2000/svg"><g fill="#F8F8F8" fill-rule="evenodd"><path d="M172.766 100.547c-.547-1.797-1.72-2.695-3.516-2.695h-3.75v5.859c0 1.562-.547 2.89-1.64 3.984-1.094 1.094-2.422 1.64-3.985 1.64-1.563 0-2.89-.546-3.984-1.64-1.094-1.093-1.641-2.422-1.641-3.984V97.85h-22.5V103.712c0 1.562-.547 2.89-1.64 3.984-1.094 1.094-2.422 1.64-3.985 1.64-1.563 0-2.89-.546-3.984-1.64-1.094-1.093-1.641-2.422-1.641-3.984V97.85h-3.75c-1.797 0-2.969.899-3.516 2.696H113v45.703c0 1.016.371 1.895 1.113 2.637S115.734 150 116.75 150h52.5c1.016 0 1.895-.371 2.637-1.113S173 147.266 173 146.25V100.547h-.234zm-3.516 45.703h-52.5v-30h52.5v30zm-43.184-40.664c.508 0 .957-.176 1.348-.527.39-.352.586-.801.586-1.348V91.875c0-.547-.195-.996-.586-1.348a1.955 1.955 0 0 0-1.348-.527c-.507 0-.937.176-1.289.527-.351.352-.527.801-.527 1.348v11.836c0 .547.176.996.527 1.348.352.351.782.527 1.29.527zm33.809 0c.547 0 .996-.176 1.348-.527.351-.352.527-.801.527-1.348V91.875c0-.547-.176-.996-.527-1.348-.352-.351-.801-.527-1.348-.527s-.996.176-1.348.527c-.351.352-.527.801-.527 1.348v11.836c0 .547.176.996.527 1.348.352.351.801.527 1.348.527zM69.595 127.477c8.108-50.675 23.648-71.621 36.26-85.585 6.532-7.207 13.29-14.64 13.29-25C119.144 7.658 112.161 0 101.35 0 90.315 0 84.234 6.081 84.234 15.766c0 2.928 1.352 6.531 2.478 7.883-.45.225-1.126.45-2.027.45C72.072 24.1 65.99 0 47.297 0 37.613 0 30.18 6.532 25.901 21.171h-1.802L21.622 1.577H0v59.459h20.27c3.604-18.243 7.883-22.973 15.316-22.973 9.459 0 20.495 7.658 32.657 7.658 7.207 0 14.865-2.027 23.424-8.334l1.351 1.352-9.91 10.36c-44.37 46.171-57.883 60.36-57.883 81.532 0 11.036 8.334 19.369 22.973 19.369 13.739 0 19.37-10.135 21.397-22.523z"/></g></svg>
